X:29
T:Duncan Gray
C:arr. Carlo Minasi
M:C
L:1/8
B:Chappell's One Hundred Scotch Melodies
B:Arranged for the Concertina by Carlo Minasi
Q:"Allegro  "1/4=200
Z:Peter Dunk 2012
K:C
!p!G2c2B2c2|(d2e2 B4)!f!|\
[c4G4E4][d3B3G3]f|([e2c2][c2E2])[c2E2] z!p!G|G2c2B2c2|
(d2e2 B4)!f!|[c4G4E4][d3B3G3]f|\
([e2c2][c2E2])[c2E2] z2 !mf!||[e2c2][g2e2][g2e2] [fd][ec]|\
[f2d2][f2d2][f2d2]z2|[f2A2][e2G2][d2F2][c2E2]|
[B2D2]d2[G2D2B,2]z2|[g2e2][af][ge] [f2d2][e2c2]|\
(defd) [B4G4F4] !f!|[c4G4E4][d3B3G3] f|\
([e2c2][c2G2E2])[c2G2E2]z2||

